X: 43
M: 6/8
L: 1/8
K: D
(d/e/) | f> e d d3/ B A/ | A> B d
e2 d/ e/ | f> e d d> B A |
d> B A | A> B d e2 d/ e/ |
f> e d d> B A | A> B d d2 |][|
(f/e/) | d f a d f a | b> a f
e2 (a/g/) | f> e d d> B A |

